!!!SOCIAL_FUNCTION:	bird dance songs
!!!PDT:	1956
!!!OTL: No_82_Bird_Dance_Song_(e).krn
!!!LANG: Non-Tone
!!!LING_GROUP: Muskogean
!!!REG: Florida
**kern
*staff1
=1-
*clefF4
*k[b-]
*M2/4
4r
8F\L
8F\J
=2!|:
2c\
=3||
*M3/4
8c\L
8c\J
8B-\L
8B-\J
(8A\L
16F\Jk)
16r
=4||
*M2/4
16c\LK
8.c\J
(8c\L
8B-\J
=5
4A\)
8B-\L
8A\J
=6
8F\L
8F\J
8F\
8r
=7
(16F\LK
8.c\J)
16A\LK
8.A\J
=8||
*M3/4
16F\LK
8.A\J
8F\L
8F\J
4F\
=9||
*M2/4
16A\LK
8.A\J
16F\LK
8.A\J
=10
8F\L
8F\J
4F\
=11
16F\LK
8.F\J
8C/
8r
=12||
*M3/4
8F\L
8F\J
4F\
8A\L
8F\J
=13
2A\
8B-\L
8A\J
=14
8F\L
8F\J
8F\
8r
8F\L
8F\J
=15:|!
8F\L
8F\J
4F\
4r
==
*-
